source/images/icons/feature_eco.svg

<svg width="46" height="56" viewBox="0 0 46 56" fill="none" xmlns="http://www.w3.org/2000/svg">
<path fill-rule="evenodd" clip-rule="evenodd" d="M38.7068 22.1225C39.4764 15.5574 40.2041 9.34979 45.9997 4C19.5072 3.99988 11.8468 12.128 7.9998 17.9999C-0.541753 31.0373 7.08506 43.6704 8.7106 46.0864C7.76149 47.9699 6.8453 49.8228 5.96853 51.596C5.28756 52.9732 4.63037 54.3023 4 55.5603L4.88103 55.9999C5.51647 54.7318 6.17882 53.3919 6.86491 52.0041C7.71305 50.2884 8.59746 48.4993 9.51217 46.6817C12.1065 47.5486 23.9646 50.8651 31.5 41.9999C37.1568 35.3449 37.9519 28.5617 38.7068 22.1225Z" fill="#F0EBFF"/>
<path fill-rule="evenodd" clip-rule="evenodd" d="M5.23221 41.055C9.18989 33.2582 13.686 25.0948 18.2668 19.9999L19 20.6562C14.4314 25.7376 9.93043 33.9532 5.96782 41.779C6.34578 41.9019 6.88834 42.0652 7.56144 42.2326C8.95668 42.5795 10.8987 42.9402 13.0898 43.0003C17.4744 43.1204 22.753 42.0406 26.7381 37.3522C32.1982 30.9285 32.9631 24.4063 33.7206 17.9463L33.7357 17.8172C34.4173 12.0063 35.12 6.18297 39.6108 1.02289C27.8214 1.2525 20.1299 3.18456 14.9438 5.69784C9.44336 8.36348 6.69156 11.7161 4.83626 14.5479C0.283102 21.4976 0.51823 28.3097 1.90266 33.4262C2.59642 35.9902 3.57807 38.1203 4.38638 39.6085C4.70612 40.1972 4.99777 40.6837 5.23221 41.055ZM4.7106 42.0864C3.08506 39.6704 -4.54175 27.0373 3.9998 13.9999C7.77584 8.23634 15.2259 0.299055 40.5524 0.00822987C41.0285 0.00276494 41.5109 -2.58931e-06 41.9997 1.81779e-09C41.6406 0.331444 41.301 0.666183 40.9796 1.0041C36.1138 6.12034 35.4287 11.9641 34.7068 18.1225C33.952 24.5617 33.1568 31.3449 27.5 37.9999C19.9646 46.8651 8.10646 43.5486 5.51217 42.6817C4.59746 44.4993 3.71305 46.2884 2.86491 48.0041C2.17882 49.3919 1.51647 50.7318 0.881027 51.9999L0 51.5603C0.630371 50.3023 1.28756 48.9732 1.96853 47.596C2.8453 45.8228 3.76149 43.9699 4.7106 42.0864Z" fill="#7859CF"/>
</svg>

<svg viewBox="0 0 46 56" fill="none" xmlns="http://www.w3.org/2000/svg"><path fill-rule="evenodd" clip-rule="evenodd" d="M38.7 22.12c.78-6.56 1.5-12.77 7.3-18.12-26.5 0-34.15 8.13-38 14-8.54 13.04-.91 25.67.71 28.09a808.17 808.17 0 0 0-4.71 9.47l.88.44c.64-1.27 1.3-2.6 1.98-4l2.65-5.32c2.6.87 14.45 4.19 21.99-4.68 5.66-6.66 6.45-13.44 7.2-19.88Z" fill="#F0EBFF"/><path fill-rule="evenodd" clip-rule="evenodd" d="M5.23 41.05c3.96-7.8 8.46-15.96 13.04-21.05l.73.66c-4.57 5.08-9.07 13.3-13.03 21.12a26.2 26.2 0 0 0 7.12 1.22c4.38.12 9.66-.96 13.65-5.65 5.46-6.42 6.22-12.94 6.98-19.4l.02-.13c.68-5.81 1.38-11.64 5.87-16.8-11.79.23-19.48 2.16-24.67 4.68a23.8 23.8 0 0 0-10.1 8.85 22.6 22.6 0 0 0-2.94 18.88 28.93 28.93 0 0 0 3.33 7.63Zm-.52 1.04c-1.62-2.42-9.25-15.05-.71-28.09 3.78-5.76 11.23-13.7 36.55-14h1.45a22 22 0 0 0-1.02 1c-4.87 5.12-5.55 10.96-6.27 17.12-.76 6.44-1.55 13.22-7.21 19.88-7.54 8.87-19.4 5.55-21.99 4.68l-2.65 5.32c-.68 1.4-1.34 2.73-1.98 4l-.88-.44 1.97-3.96 2.74-5.51Z" fill="#7859CF"/></svg>
